flaticon/emoticons/grubby-1.svg

<svg xmlns="http://www.w3.org/2000/svg" width="32" height="32" viewBox="0 0 24 24">
    <path d="M14.691406 18.933594C14.714844 18.921875 14.738281 18.914062 14.757812 18.898438L16.359375 17.699219C16.535156 17.566406 16.570312 17.3125 16.4375 17.136719 16.304688 16.960938 16.054688 16.925781 15.878906 17.058594L15.394531 17.417969C13.246094 15.980469 10.863281 17.441406 9.667969 18.644531L9.15625 18.257812C8.976562 18.125 8.726562 18.160156 8.59375 18.339844 8.460938 18.515625 8.5 18.765625 8.675781 18.898438L10.277344 20.097656C10.347656 20.152344 10.433594 20.179688 10.515625 20.179688 10.636719 20.179688 10.757812 20.121094 10.835938 20.019531 10.96875 19.839844 10.933594 19.589844 10.757812 19.457031L10.324219 19.132812C11.042969 18.453125 12.921875 16.964844 14.714844 17.929688L14.277344 18.257812C14.269531 18.261719 14.265625 18.269531 14.261719 18.277344 14.253906 18.285156 14.242188 18.285156 14.234375 18.292969 14.21875 18.308594 14.210938 18.328125 14.199219 18.34375 14.1875 18.363281 14.175781 18.378906 14.164062 18.398438 14.152344 18.421875 14.144531 18.449219 14.136719 18.476562 14.128906 18.5 14.125 18.523438 14.125 18.550781 14.121094 18.558594 14.117188 18.566406 14.117188 18.578125 14.117188 18.59375 14.125 18.609375 14.128906 18.621094 14.128906 18.648438 14.132812 18.675781 14.144531 18.703125 14.152344 18.730469 14.164062 18.75 14.179688 18.777344 14.1875 18.789062 14.1875 18.804688 14.199219 18.816406 14.203125 18.824219 14.207031 18.824219 14.214844 18.832031 14.222656 18.839844 14.226562 18.851562 14.234375 18.863281 14.257812 18.882812 14.285156 18.898438 14.3125 18.914062 14.328125 18.921875 14.339844 18.933594 14.355469 18.941406 14.40625 18.964844 14.460938 18.976562 14.519531 18.976562 14.519531 18.976562 14.523438 18.976562 14.523438 18.976562 14.570312 18.976562 14.617188 18.964844 14.660156 18.949219 14.671875 18.945312 14.679688 18.9375 14.691406 18.933594zM15.628906 15.195312C17.175781 15.195312 18.429688 13.941406 18.429688 12.394531 18.429688 10.851562 17.175781 9.59375 15.628906 9.59375 14.085938 9.59375 12.828125 10.851562 12.828125 12.394531 12.828125 13.941406 14.085938 15.195312 15.628906 15.195312zM15.628906 10.394531C16.734375 10.394531 17.632812 11.292969 17.632812 12.394531 17.632812 13.5 16.734375 14.394531 15.628906 14.394531 14.527344 14.394531 13.628906 13.5 13.628906 12.394531 13.628906 11.292969 14.527344 10.394531 15.628906 10.394531zM8.425781 15.195312C9.972656 15.195312 11.230469 13.941406 11.230469 12.394531 11.230469 10.851562 9.972656 9.59375 8.425781 9.59375 6.882812 9.59375 5.625 10.851562 5.625 12.394531 5.625 13.941406 6.882812 15.195312 8.425781 15.195312zM8.425781 10.394531C9.53125 10.394531 10.429688 11.292969 10.429688 12.394531 10.429688 13.5 9.53125 14.394531 8.425781 14.394531 7.324219 14.394531 6.425781 13.5 6.425781 12.394531 6.425781 11.292969 7.324219 10.394531 8.425781 10.394531zM8.425781 10.394531"/>
    <path d="M 22.515625 7.539062 C 22.289062 5.90625 21.585938 4.496094 20.585938 3.671875 C 20.328125 3.457031 20.140625 3.125 20.023438 2.679688 C 19.695312 1.394531 18.484375 0.496094 16.945312 0.390625 C 16.089844 0.332031 15.347656 0.597656 14.535156 0.925781 C 14.503906 0.9375 14.472656 0.9375 14.421875 0.90625 C 14.257812 0.460938 13.878906 0.15625 13.359375 0.046875 C 12.160156 -0.207031 10.304688 0.570312 8.816406 1.925781 C 8.820312 1.570312 8.894531 1.25 9.09375 1.148438 L 9.769531 0.8125 L 9.113281 0.441406 C 8.414062 0.0507812 6.738281 -0.371094 5.375 0.820312 C 4.882812 1.253906 4.519531 1.859375 4.335938 2.570312 C 4.296875 2.71875 4.261719 2.875 4.226562 3.027344 C 4.210938 3.09375 4.15625 3.113281 4.132812 3.121094 C 4.089844 3.128906 4.054688 3.121094 4.015625 3.070312 C 3.800781 2.8125 3.476562 2.683594 3.144531 2.730469 C 2.828125 2.773438 2.558594 2.976562 2.433594 3.273438 C 1.644531 5.101562 0.171875 9.753906 3.3125 13.734375 L 3.3125 20.398438 C 3.3125 21.5 4.210938 22.398438 5.3125 22.398438 L 6.914062 22.398438 L 6.914062 23.078125 C 6.914062 23.585938 7.328125 24 7.835938 24 L 17.195312 24 C 17.703125 24 18.117188 23.585938 18.117188 23.078125 L 18.117188 22.398438 L 18.917969 22.398438 C 20.023438 22.398438 20.917969 21.5 20.917969 20.398438 L 20.917969 13.753906 C 21.386719 13.226562 23.007812 11.109375 22.515625 7.539062 Z M 3.167969 3.589844 C 3.175781 3.574219 3.191406 3.53125 3.257812 3.519531 C 3.277344 3.519531 3.34375 3.515625 3.414062 3.601562 C 3.636719 3.867188 3.984375 3.980469 4.320312 3.898438 C 4.667969 3.816406 4.929688 3.546875 5.007812 3.203125 C 5.039062 3.058594 5.074219 2.910156 5.113281 2.773438 C 5.257812 2.21875 5.53125 1.75 5.902344 1.421875 C 6.742188 0.6875 7.671875 0.785156 8.226562 0.945312 C 8.023438 1.324219 7.964844 1.859375 8.058594 2.511719 C 8.085938 2.726562 8.234375 2.902344 8.441406 2.972656 C 8.648438 3.039062 8.875 2.984375 9.03125 2.828125 C 10.554688 1.28125 12.316406 0.644531 13.191406 0.832031 C 13.570312 0.910156 13.648438 1.121094 13.671875 1.1875 C 13.753906 1.398438 13.914062 1.566406 14.125 1.65625 C 14.347656 1.753906 14.605469 1.757812 14.832031 1.667969 C 15.578125 1.371094 16.203125 1.144531 16.890625 1.191406 C 17.835938 1.257812 18.953125 1.734375 19.25 2.878906 C 19.40625 3.492188 19.6875 3.964844 20.078125 4.289062 C 20.476562 4.621094 21.441406 5.609375 21.722656 7.648438 C 22.03125 9.871094 21.445312 11.457031 20.917969 12.375 L 20.917969 6.894531 L 20.316406 7.25 C 19.332031 7.828125 18.472656 8.003906 17.761719 7.773438 C 17.652344 7.738281 17.546875 7.695312 17.453125 7.644531 C 17.429688 7.632812 17.410156 7.617188 17.386719 7.601562 C 17.316406 7.5625 17.25 7.523438 17.1875 7.476562 C 17.167969 7.460938 17.152344 7.445312 17.128906 7.429688 C 17.074219 7.382812 17.015625 7.335938 16.96875 7.292969 C 16.945312 7.269531 16.929688 7.25 16.910156 7.230469 C 16.871094 7.1875 16.828125 7.144531 16.792969 7.101562 C 16.769531 7.078125 16.757812 7.054688 16.738281 7.03125 C 16.710938 6.996094 16.679688 6.957031 16.65625 6.925781 C 16.640625 6.898438 16.628906 6.882812 16.613281 6.859375 C 16.597656 6.832031 16.574219 6.800781 16.5625 6.777344 C 16.550781 6.761719 16.550781 6.753906 16.542969 6.742188 C 16.507812 6.679688 16.484375 6.636719 16.484375 6.636719 L 16.398438 6.433594 L 16.179688 6.398438 C 12.339844 5.808594 10.472656 7.414062 9.949219 7.976562 C 7.160156 7.671875 5.953125 6.871094 5.941406 6.863281 L 5.644531 6.660156 L 5.410156 6.933594 C 5.253906 7.113281 5.09375 7.273438 4.929688 7.414062 C 4.441406 7.832031 3.945312 8.070312 3.574219 8.207031 L 3.3125 8.304688 L 3.3125 12.332031 C 1.351562 9.058594 2.339844 5.515625 3.167969 3.589844 Z M 17.316406 23.078125 C 17.316406 23.144531 17.261719 23.199219 17.195312 23.199219 L 7.835938 23.199219 C 7.769531 23.199219 7.714844 23.144531 7.714844 23.078125 L 7.714844 22.398438 L 17.316406 22.398438 Z M 20.117188 20.398438 C 20.117188 21.058594 19.582031 21.597656 18.917969 21.597656 L 5.3125 21.597656 C 4.652344 21.597656 4.113281 21.058594 4.113281 20.398438 L 4.113281 8.855469 C 4.605469 8.640625 5.222656 8.285156 5.792969 7.699219 C 6.355469 7.992188 7.714844 8.5625 10.078125 8.792969 L 10.300781 8.8125 L 10.4375 8.632812 C 10.5 8.550781 11.992188 6.636719 15.859375 7.160156 C 16.066406 7.515625 16.578125 8.230469 17.503906 8.53125 C 18.285156 8.789062 19.164062 8.695312 20.117188 8.253906 Z M 20.117188 20.398438"/>
    <path d="M18 19.890625C18.074219 19.816406 18.117188 19.710938 18.117188 19.605469 18.117188 19.503906 18.074219 19.398438 18.003906 19.324219 17.855469 19.175781 17.582031 19.175781 17.433594 19.324219 17.363281 19.398438 17.316406 19.503906 17.316406 19.605469 17.316406 19.710938 17.363281 19.816406 17.433594 19.890625 17.511719 19.964844 17.613281 20.007812 17.71875 20.007812 17.824219 20.007812 17.925781 19.964844 18 19.890625zM17.4375 18.121094C17.363281 18.195312 17.316406 18.296875 17.316406 18.40625 17.316406 18.515625 17.363281 18.613281 17.433594 18.691406 17.507812 18.765625 17.609375 18.804688 17.71875 18.804688 17.820312 18.804688 17.925781 18.761719 18.003906 18.691406 18.078125 18.613281 18.117188 18.511719 18.117188 18.40625 18.117188 18.300781 18.074219 18.199219 18.003906 18.121094 17.855469 17.972656 17.582031 17.972656 17.4375 18.121094zM18.632812 18.121094C18.5625 18.195312 18.519531 18.296875 18.519531 18.40625 18.519531 18.515625 18.5625 18.613281 18.632812 18.691406 18.710938 18.765625 18.808594 18.804688 18.917969 18.804688 19.023438 18.804688 19.125 18.761719 19.203125 18.691406 19.277344 18.613281 19.320312 18.511719 19.320312 18.40625 19.320312 18.300781 19.273438 18.199219 19.203125 18.121094 19.054688 17.972656 18.78125 17.972656 18.632812 18.121094zM18.632812 19.324219C18.5625 19.398438 18.519531 19.503906 18.519531 19.605469 18.519531 19.710938 18.5625 19.816406 18.632812 19.890625 18.710938 19.964844 18.816406 20.007812 18.917969 20.007812 19.023438 20.007812 19.125 19.964844 19.203125 19.890625 19.273438 19.816406 19.320312 19.710938 19.320312 19.605469 19.320312 19.503906 19.273438 19.398438 19.203125 19.324219 19.050781 19.175781 18.78125 19.175781 18.632812 19.324219zM17.835938 20.523438C17.761719 20.597656 17.71875 20.703125 17.71875 20.808594 17.71875 20.910156 17.761719 21.015625 17.835938 21.089844 17.910156 21.167969 18.015625 21.207031 18.117188 21.207031 18.222656 21.207031 18.324219 21.167969 18.402344 21.089844 18.472656 21.015625 18.519531 20.910156 18.519531 20.808594 18.519531 20.703125 18.472656 20.597656 18.402344 20.523438 18.25 20.375 17.984375 20.375 17.835938 20.523438zM16.632812 20.523438C16.5625 20.597656 16.519531 20.703125 16.519531 20.808594 16.519531 20.914062 16.558594 21.015625 16.632812 21.089844 16.710938 21.167969 16.8125 21.207031 16.917969 21.207031 17.023438 21.207031 17.125 21.167969 17.203125 21.089844 17.273438 21.015625 17.316406 20.910156 17.316406 20.808594 17.316406 20.703125 17.273438 20.597656 17.203125 20.523438 17.050781 20.375 16.785156 20.375 16.632812 20.523438zM16.800781 19.890625C16.875 19.816406 16.917969 19.710938 16.917969 19.605469 16.917969 19.503906 16.875 19.398438 16.800781 19.324219 16.652344 19.175781 16.386719 19.175781 16.234375 19.324219 16.15625 19.398438 16.117188 19.5 16.117188 19.605469 16.117188 19.710938 16.160156 19.816406 16.234375 19.890625 16.308594 19.964844 16.414062 20.007812 16.519531 20.007812 16.621094 20.007812 16.726562 19.964844 16.800781 19.890625zM15.433594 20.523438C15.359375 20.597656 15.316406 20.703125 15.316406 20.808594 15.316406 20.910156 15.359375 21.015625 15.433594 21.089844 15.507812 21.167969 15.613281 21.207031 15.71875 21.207031 15.820312 21.207031 15.925781 21.167969 16 21.089844 16.074219 21.015625 16.117188 20.910156 16.117188 20.808594 16.117188 20.703125 16.074219 20.597656 16 20.523438 15.851562 20.375 15.582031 20.375 15.433594 20.523438zM13.832031 20.523438C13.761719 20.597656 13.714844 20.703125 13.714844 20.808594 13.714844 20.914062 13.757812 21.015625 13.832031 21.089844 13.910156 21.164062 14.011719 21.207031 14.117188 21.207031 14.222656 21.207031 14.324219 21.164062 14.402344 21.089844 14.472656 21.015625 14.515625 20.910156 14.515625 20.808594 14.515625 20.703125 14.472656 20.597656 14.402344 20.523438 14.253906 20.375 13.980469 20.375 13.832031 20.523438zM6.796875 19.324219C6.644531 19.175781 6.382812 19.175781 6.230469 19.324219 6.15625 19.398438 6.113281 19.503906 6.113281 19.605469 6.113281 19.710938 6.15625 19.816406 6.230469 19.890625 6.304688 19.964844 6.410156 20.007812 6.515625 20.007812 6.617188 20.007812 6.722656 19.964844 6.796875 19.890625 6.871094 19.816406 6.914062 19.710938 6.914062 19.605469 6.914062 19.503906 6.871094 19.398438 6.796875 19.324219zM6.234375 18.121094C6.15625 18.199219 6.113281 18.296875 6.113281 18.40625 6.113281 18.511719 6.15625 18.613281 6.230469 18.691406 6.304688 18.761719 6.40625 18.804688 6.515625 18.804688 6.617188 18.804688 6.722656 18.761719 6.796875 18.691406 6.871094 18.613281 6.914062 18.511719 6.914062 18.40625 6.914062 18.296875 6.871094 18.195312 6.796875 18.121094 6.648438 17.972656 6.375 17.976562 6.234375 18.121094zM5.3125 18.804688C5.417969 18.804688 5.523438 18.761719 5.597656 18.691406 5.667969 18.613281 5.714844 18.511719 5.714844 18.40625 5.714844 18.296875 5.667969 18.195312 5.597656 18.121094 5.449219 17.972656 5.171875 17.976562 5.035156 18.121094 4.957031 18.199219 4.914062 18.296875 4.914062 18.40625 4.914062 18.511719 4.957031 18.613281 5.03125 18.691406 5.105469 18.761719 5.207031 18.804688 5.3125 18.804688zM5.597656 19.324219C5.449219 19.175781 5.171875 19.175781 5.03125 19.324219 4.957031 19.398438 4.914062 19.503906 4.914062 19.605469 4.914062 19.710938 4.957031 19.816406 5.03125 19.890625 5.105469 19.964844 5.210938 20.007812 5.3125 20.007812 5.417969 20.007812 5.523438 19.964844 5.597656 19.890625 5.667969 19.816406 5.714844 19.710938 5.714844 19.605469 5.714844 19.503906 5.667969 19.398438 5.597656 19.324219zM5.828125 20.523438C5.757812 20.597656 5.714844 20.699219 5.714844 20.808594 5.714844 20.914062 5.753906 21.015625 5.828125 21.089844 5.90625 21.167969 6.011719 21.207031 6.113281 21.207031 6.21875 21.207031 6.320312 21.167969 6.398438 21.089844 6.46875 21.015625 6.515625 20.910156 6.515625 20.808594 6.515625 20.703125 6.46875 20.597656 6.398438 20.523438 6.246094 20.375 5.980469 20.375 5.828125 20.523438zM7.03125 20.523438C6.957031 20.597656 6.914062 20.703125 6.914062 20.808594 6.914062 20.910156 6.957031 21.015625 7.03125 21.089844 7.105469 21.167969 7.210938 21.207031 7.3125 21.207031 7.417969 21.207031 7.523438 21.167969 7.597656 21.089844 7.675781 21.015625 7.714844 20.910156 7.714844 20.808594 7.714844 20.703125 7.675781 20.597656 7.597656 20.523438 7.445312 20.375 7.183594 20.375 7.03125 20.523438zM8 19.324219C7.847656 19.175781 7.574219 19.179688 7.429688 19.324219 7.359375 19.398438 7.3125 19.503906 7.3125 19.605469 7.3125 19.710938 7.359375 19.816406 7.429688 19.890625 7.507812 19.964844 7.609375 20.007812 7.714844 20.007812 7.820312 20.007812 7.921875 19.964844 8 19.890625 8.070312 19.816406 8.113281 19.710938 8.113281 19.605469 8.113281 19.503906 8.070312 19.398438 8 19.324219zM8.230469 20.523438C8.15625 20.597656 8.113281 20.703125 8.113281 20.808594 8.113281 20.910156 8.15625 21.015625 8.230469 21.089844 8.304688 21.167969 8.410156 21.207031 8.515625 21.207031 8.617188 21.207031 8.722656 21.167969 8.796875 21.089844 8.871094 21.015625 8.914062 20.910156 8.914062 20.808594 8.914062 20.703125 8.871094 20.597656 8.796875 20.523438 8.652344 20.375 8.378906 20.378906 8.230469 20.523438zM9.832031 20.523438C9.753906 20.597656 9.714844 20.703125 9.714844 20.808594 9.714844 20.910156 9.753906 21.015625 9.832031 21.089844 9.90625 21.167969 10.011719 21.207031 10.117188 21.207031 10.21875 21.207031 10.324219 21.167969 10.398438 21.089844 10.472656 21.015625 10.515625 20.910156 10.515625 20.808594 10.515625 20.703125 10.472656 20.597656 10.398438 20.523438 10.246094 20.375 9.984375 20.375 9.832031 20.523438zM11.03125 20.523438C10.960938 20.597656 10.914062 20.703125 10.914062 20.808594 10.914062 20.910156 10.960938 21.015625 11.03125 21.089844 11.105469 21.167969 11.210938 21.207031 11.316406 21.207031 11.417969 21.207031 11.523438 21.164062 11.597656 21.089844 11.671875 21.015625 11.714844 20.910156 11.714844 20.808594 11.714844 20.703125 11.671875 20.597656 11.601562 20.523438 11.453125 20.375 11.179688 20.375 11.03125 20.523438zM12.230469 20.523438C12.160156 20.597656 12.117188 20.703125 12.117188 20.808594 12.117188 20.910156 12.160156 21.015625 12.230469 21.089844 12.308594 21.167969 12.414062 21.207031 12.515625 21.207031 12.621094 21.207031 12.722656 21.167969 12.800781 21.089844 12.871094 21.015625 12.917969 20.910156 12.917969 20.808594 12.917969 20.703125 12.871094 20.597656 12.800781 20.523438 12.648438 20.375 12.382812 20.375 12.230469 20.523438zM9.714844 11.804688C9.714844 12.136719 9.445312 12.402344 9.113281 12.402344 8.785156 12.402344 8.515625 12.136719 8.515625 11.804688 8.515625 11.472656 8.785156 11.203125 9.113281 11.203125 9.445312 11.203125 9.714844 11.472656 9.714844 11.804688zM16.917969 11.804688C16.917969 12.136719 16.648438 12.402344 16.316406 12.402344 15.984375 12.402344 15.71875 12.136719 15.71875 11.804688 15.71875 11.472656 15.984375 11.203125 16.316406 11.203125 16.648438 11.203125 16.917969 11.472656 16.917969 11.804688zM16.917969 11.804688"/>
</svg>

<svg xmlns="http://www.w3.org/2000/svg" width="32" height="32" viewBox="0 0 24 24">
    <path d="M14.691 18.934c.024-.012.047-.02.067-.036l1.601-1.199a.403.403 0 0 0 .078-.562.399.399 0 0 0-.558-.078l-.484.359c-2.149-1.438-4.532.023-5.727 1.227l-.512-.387a.4.4 0 1 0-.48.64l1.601 1.2c.07.054.157.082.239.082a.403.403 0 0 0 .242-.723l-.434-.324c.719-.68 2.598-2.168 4.39-1.203l-.437.328c-.007.004-.011.012-.015.02-.008.007-.02.007-.028.015-.015.016-.023.035-.035.05-.011.02-.023.036-.035.055a.46.46 0 0 0-.039.153c-.004.008-.008.015-.008.027 0 .016.008.031.012.043 0 .027.004.055.016.082.007.027.02.047.035.074.008.012.008.028.02.04.003.007.007.007.015.015s.012.02.02.031c.023.02.05.035.078.051.015.008.027.02.042.027.051.024.106.036.165.036h.003a.406.406 0 0 0 .137-.028c.012-.004.02-.012.031-.015zm0 0M15.629 15.195a2.8 2.8 0 1 0 0-5.601 2.8 2.8 0 0 0 0 5.601zm0-4.8c1.105 0 2.004.898 2.004 2a2.002 2.002 0 0 1-4.004 0c0-1.102.898-2 2-2zm0 0M8.426 15.195a2.804 2.804 0 0 0 2.804-2.8c0-1.543-1.257-2.801-2.804-2.801a2.806 2.806 0 0 0-2.801 2.8c0 1.547 1.258 2.801 2.8 2.801zm0-4.8c1.105 0 2.004.898 2.004 2a2.002 2.002 0 0 1-4.004 0c0-1.102.898-2 2-2zm0 0"/>
    <path d="M22.516 7.54c-.227-1.634-.93-3.044-1.93-3.868-.258-.215-.445-.547-.563-.992-.328-1.285-1.539-2.184-3.078-2.29-.855-.058-1.597.208-2.41.536-.031.011-.062.011-.113-.02-.164-.445-.543-.75-1.063-.86-1.199-.253-3.054.524-4.543 1.88.004-.356.079-.676.278-.778L9.77.813 9.113.44c-.699-.39-2.375-.812-3.738.38-.492.433-.855 1.038-1.04 1.75-.038.148-.073.304-.108.456-.016.067-.07.086-.094.094-.043.008-.078 0-.117-.05a.954.954 0 0 0-.871-.34.899.899 0 0 0-.711.542c-.79 1.829-2.262 6.48.878 10.461v6.664c0 1.102.899 2 2 2h1.602v.68c0 .508.414.922.922.922h9.36a.924.924 0 0 0 .921-.922v-.68h.801c1.105 0 2-.898 2-2v-6.644c.469-.527 2.09-2.645 1.598-6.215zM3.168 3.59c.008-.016.023-.059.09-.07.02 0 .086-.004.156.082.223.265.57.378.906.296a.919.919 0 0 0 .688-.695c.031-.144.066-.293.105-.43.145-.554.418-1.023.79-1.351.84-.734 1.769-.637 2.324-.477-.204.38-.262.914-.168 1.567.027.215.175.39.382.46a.581.581 0 0 0 .59-.144c1.524-1.547 3.285-2.183 4.16-1.996.38.078.457.29.48.356.083.21.243.378.454.468.223.098.48.102.707.012.746-.297 1.371-.523 2.059-.477.945.067 2.062.543 2.359 1.688.156.613.438 1.086.828 1.41.399.332 1.363 1.32 1.645 3.36.308 2.222-.278 3.808-.805 4.726v-5.48l-.602.355c-.984.578-1.843.754-2.554.523a1.827 1.827 0 0 1-.309-.128c-.023-.012-.043-.028-.066-.043a1.714 1.714 0 0 1-.2-.125c-.019-.016-.035-.032-.058-.047-.055-.047-.113-.094-.16-.137-.024-.023-.04-.043-.059-.063-.039-.043-.082-.085-.117-.128-.023-.024-.035-.047-.055-.07l-.082-.106c-.015-.028-.027-.043-.043-.067-.015-.027-.039-.058-.05-.082-.012-.015-.012-.023-.02-.035l-.059-.105-.086-.203-.218-.036c-3.84-.59-5.707 1.016-6.23 1.579C7.16 7.672 5.952 6.87 5.94 6.863l-.296-.203-.235.274a4.453 4.453 0 0 1-1.836 1.273l-.261.098v4.027C1.351 9.059 2.34 5.516 3.167 3.59zm14.148 19.488a.122.122 0 0 1-.12.121h-9.36a.122.122 0 0 1-.121-.12v-.68h9.601zm2.801-2.68a1.2 1.2 0 0 1-1.199 1.2H5.313c-.66 0-1.2-.54-1.2-1.2V8.855A5.299 5.299 0 0 0 5.793 7.7c.562.293 1.922.864 4.285 1.094l.223.02.136-.18c.063-.082 1.555-1.996 5.422-1.473.207.356.72 1.07 1.645 1.371.781.258 1.66.164 2.613-.277zm0 0"/>
    <path d="M18 19.89a.409.409 0 0 0 .004-.566.42.42 0 0 0-.57 0 .424.424 0 0 0-.118.281c0 .106.047.211.118.286a.4.4 0 0 0 .566 0zm0 0M17.438 18.121a.405.405 0 0 0-.122.285c0 .11.047.207.118.285a.398.398 0 0 0 .285.114.438.438 0 0 0 .285-.114.412.412 0 0 0 .113-.285.43.43 0 0 0-.113-.285.416.416 0 0 0-.567 0zm0 0M18.633 18.121a.415.415 0 0 0 0 .57.405.405 0 0 0 .285.114.43.43 0 0 0 .285-.114.416.416 0 0 0 .117-.285.434.434 0 0 0-.117-.285.42.42 0 0 0-.57 0zm0 0M18.633 19.324a.42.42 0 0 0-.113.281c0 .106.043.211.113.286a.423.423 0 0 0 .285.117.416.416 0 0 0 .285-.117.426.426 0 0 0 .117-.286.424.424 0 0 0-.117-.28.42.42 0 0 0-.57 0zm0 0M17.836 20.523a.409.409 0 0 0-.117.286c0 .101.043.207.117.28a.399.399 0 0 0 .684-.281.426.426 0 0 0-.118-.285.416.416 0 0 0-.566 0zm0 0M16.633 20.523a.423.423 0 0 0-.113.286.396.396 0 0 0 .398.398c.105 0 .207-.039.285-.117a.42.42 0 0 0 .113-.281.423.423 0 0 0-.113-.286.42.42 0 0 0-.57 0zm0 0M16.8 19.89a.409.409 0 0 0 .118-.285.406.406 0 0 0-.117-.28.416.416 0 0 0-.567 0 .384.384 0 0 0-.117.28c0 .106.043.211.117.286.075.074.18.117.286.117a.406.406 0 0 0 .28-.117zm0 0M15.434 20.523a.409.409 0 0 0-.118.286c0 .101.043.207.118.28.074.079.18.118.285.118A.39.39 0 0 0 16 21.09a.406.406 0 0 0 .117-.281.409.409 0 0 0-.117-.286.416.416 0 0 0-.566 0zm0 0M13.832 20.523a.4.4 0 0 0 .285.684.416.416 0 0 0 .285-.117.42.42 0 0 0 .114-.281.423.423 0 0 0-.114-.286.42.42 0 0 0-.57 0zm0 0M6.797 19.324a.416.416 0 0 0-.567 0 .406.406 0 0 0-.117.281c0 .106.043.211.117.286.075.074.18.117.286.117a.406.406 0 0 0 .28-.117.409.409 0 0 0 .118-.286.406.406 0 0 0-.117-.28zm0 0M6.234 18.121a.396.396 0 0 0-.12.285c0 .106.042.207.116.285.075.07.176.114.286.114a.42.42 0 0 0 .28-.114.416.416 0 0 0 .118-.285c0-.11-.043-.21-.117-.285a.415.415 0 0 0-.563 0zm0 0M5.313 18.805c.105 0 .21-.043.285-.114a.434.434 0 0 0 .117-.285c0-.11-.047-.21-.117-.285-.149-.148-.426-.144-.563 0a.396.396 0 0 0-.12.285c0 .106.042.207.116.285.074.07.176.114.282.114zm0 0M5.598 19.324c-.149-.148-.426-.148-.567 0a.406.406 0 0 0-.117.281c0 .106.043.211.117.286.074.074.18.117.282.117.105 0 .21-.043.285-.117a.426.426 0 0 0 .117-.286.424.424 0 0 0-.117-.28zm0 0M5.828 20.523a.415.415 0 0 0-.113.286.396.396 0 0 0 .398.398.399.399 0 0 0 .403-.398.426.426 0 0 0-.118-.286.42.42 0 0 0-.57 0zm0 0M7.031 20.523a.409.409 0 0 0-.117.286c0 .101.043.207.117.28a.39.39 0 0 0 .282.118c.105 0 .21-.039.285-.117a.39.39 0 0 0 .117-.281c0-.106-.04-.211-.117-.286a.416.416 0 0 0-.567 0zm0 0M8 19.324a.425.425 0 0 0-.57 0 .424.424 0 0 0-.117.281c0 .106.046.211.117.286.078.074.18.117.285.117A.416.416 0 0 0 8 19.89a.423.423 0 0 0 .113-.286.42.42 0 0 0-.113-.28zm0 0M8.23 20.523a.409.409 0 0 0-.117.286c0 .101.043.207.117.28.075.079.18.118.286.118a.39.39 0 0 0 .28-.117.406.406 0 0 0 .118-.281.409.409 0 0 0-.117-.286c-.145-.148-.418-.144-.567 0zm0 0M9.832 20.523a.392.392 0 0 0-.117.286c0 .101.039.207.117.28.074.079.18.118.285.118a.39.39 0 0 0 .281-.117.406.406 0 0 0 .118-.281.409.409 0 0 0-.118-.286.416.416 0 0 0-.566 0zm0 0M11.031 20.523a.426.426 0 0 0-.117.286c0 .101.047.207.117.28.074.079.18.118.285.118a.406.406 0 0 0 .282-.117.406.406 0 0 0 .004-.567.42.42 0 0 0-.57 0zm0 0M12.23 20.523a.423.423 0 0 0-.113.286.42.42 0 0 0 .113.28.405.405 0 0 0 .57 0 .424.424 0 0 0 .118-.28.426.426 0 0 0-.117-.286.42.42 0 0 0-.57 0zm0 0M9.715 11.805c0 .332-.27.597-.602.597a.598.598 0 0 1-.597-.597c0-.332.27-.602.597-.602.332 0 .602.27.602.602zm0 0M16.918 11.805c0 .332-.27.597-.602.597a.595.595 0 0 1-.597-.597.598.598 0 1 1 1.199 0zm0 0"/>
</svg>
